Newaita-dark/actions/16/draw-cuboid.svg

<svg height="16" viewBox="0 0 16 16" width="16" xmlns="http://www.w3.org/2000/svg"><path d="m7.910156 2.113281c-.070312.003907-.136718.015625-.203125.042969l-5.191406 1.945312c-.308594.0625-.527344.332032-.527344.644532v.003906.003906 5.851563c-.023437.140625.003907.289062.074219.417969 0 .003906.003906.003906.003906.007812.007813.011719.011719.019531.015625.027344.082031.136718.214844.238281.363281.289062l5.113282 2.554688c.226562.160156.535156.160156.765625-.003906l5.105469-2.550782c.152343-.050781.285156-.15625.367187-.296875.082031-.132812.117187-.292969.09375-.445312v-5.851563c.003906-.316406-.21875-.589844-.53125-.652344l-5.191406-1.945312c-.082031-.03125-.167969-.046875-.257813-.042969zm.027344 1.359375 3.648438 1.371094-3.648438 1.820312-3.648438-1.820312zm-4.632812 2.347656 3.976562 1.988282v4.480468l-3.976562-1.988281zm9.265624 0v4.480469l-3.972656 1.988281v-4.480468zm0 0" fill="#e0e0e0"/></svg>

<svg xmlns="http://www.w3.org/2000/svg" xmlns:xlink="http://www.w3.org/1999/xlink" width="16px" height="16px" viewBox="0 0 16 16" version="1.1">
<g id="surface1">
     <defs>
  <style id="current-color-scheme" type="text/css">
   .ColorScheme-Text { color:#eeeeee; } .ColorScheme-Highlight { color:#424242; }
  </style>
 </defs>
<path style="fill:currentColor" class="ColorScheme-Text" d="M 7.910156 2.113281 C 7.839844 2.117188 7.773438 2.128906 7.707031 2.15625 L 2.515625 4.101562 C 2.207031 4.164062 1.988281 4.433594 1.988281 4.746094 L 1.988281 10.605469 C 1.964844 10.746094 1.992188 10.894531 2.0625 11.023438 C 2.0625 11.027344 2.066406 11.027344 2.066406 11.03125 C 2.074219 11.042969 2.078125 11.050781 2.082031 11.058594 C 2.164062 11.195312 2.296875 11.296875 2.445312 11.347656 L 7.558594 13.902344 C 7.785156 14.0625 8.09375 14.0625 8.324219 13.898438 L 13.429688 11.347656 C 13.582031 11.296875 13.714844 11.191406 13.796875 11.050781 C 13.878906 10.917969 13.914062 10.757812 13.890625 10.605469 L 13.890625 4.753906 C 13.894531 4.4375 13.671875 4.164062 13.359375 4.101562 L 8.167969 2.15625 C 8.085938 2.125 8 2.109375 7.910156 2.113281 Z M 7.9375 3.472656 L 11.585938 4.84375 L 7.9375 6.664062 L 4.289062 4.84375 Z M 3.304688 5.820312 L 7.28125 7.808594 L 7.28125 12.289062 L 3.304688 10.300781 Z M 12.570312 5.820312 L 12.570312 10.300781 L 8.597656 12.289062 L 8.597656 7.808594 Z M 12.570312 5.820312 "/>
</g>
</svg>
